packages/foundations/assets/icons/functional/images/notification/cross_circle_20_filled.svg

<svg width="20" height="20" viewBox="0 0 20 20" fill="none" xmlns="http://www.w3.org/2000/svg">
<g clip-path="url(#clip0_2214_8064)">
<path fill-rule="evenodd" clip-rule="evenodd" d="M10 2C14.4062 2 18 5.5938 18 10C18 14.4062 14.4062 18 10 18C5.5938 18 2 14.4062 2 10C2 5.5938 5.5938 2 10 2ZM12.875 5.75L10.0312 8.5625L7.2188 5.75L5.8125 7.1562L8.625 10L5.8125 12.8438L7.2188 14.25L10.0312 11.4062L12.875 14.25L14.2812 12.8438L11.4375 10L14.2812 7.1562L12.875 5.75Z" fill="#1A1C1F"/>
</g>
<defs>
<clipPath id="clip0_2214_8064">
<rect width="20" height="20" fill="white"/>
</clipPath>
</defs>
</svg>

<svg xmlns="http://www.w3.org/2000/svg" width="20" height="20" fill="none"><g clip-path="url(#a)"><path fill="#1A1C1F" fill-rule="evenodd" d="M10 2c4.406 0 8 3.594 8 8s-3.594 8-8 8-8-3.594-8-8 3.594-8 8-8m2.875 3.75-2.844 2.813L7.22 5.75 5.812 7.156 8.626 10l-2.812 2.844 1.406 1.406 2.812-2.844 2.844 2.844 1.406-1.406L11.437 10l2.844-2.844z" clip-rule="evenodd"/></g><defs><clipPath id="a"><path fill="#fff" d="M0 0h20v20H0z"/></clipPath></defs></svg>
